X:145
T: WER HAT DIE SCHOENSTEN SCHAEFCHEN
N: B0635
O: Europa, Mitteleuropa, Deutschland
R: Kinder -, Tageszeiten - Lied, Abend
M: 2/4
L: 1/8
K: G
D | GBBA | AGG
G | BGdB | A2z
G | dddd | d2B2 |
g2e2 | d2B
d | cAGF | GBd
B | cAGF | G2z

@@@ Tune index: 2363
